X:1
T:Vale, LM
T:John Duncan Buckingham (1855-?)
T:Vale, LM
T:Public Domain
C:John Duncan Buckingham (1855-?)
Z:Public Domain
%%score ( 1 2 ) ( 3 4 )
L:1/8
M:4/4
K:Eb
V:1 treble 
V:2 treble 
V:3 bass 
V:4 bass 
V:1
 [EG]2 | [EG]6 [EB]2 | [EA]2 [EA]2 [EG]2 (EF) | [EG]6 [EG]2 | [EG]3 [FG] G2 B[FA] | %5
 [EG]2 (FE) [B,D]2 (EF) | [EG]6 [EB]2 | [E_d]2 [Ec]2 [EB]2 (GA) | [DB]6 [B,F]2 | %9
 [EG]2 [E=A]2 [DB]2 [Gc]2 | [Fd]4 [Ec]4 | [DB]6 [DB]2 | [EB]6 [Ee]2 | [Ed]2 [Ec]2 [EB]2 (EF) | %14
 [EG]6 [EG]2 | [EA]2 [EG]2 [EF]2 [EA]2 | [EG]4 (E2 D2) | E6 |] %18
V:2
 x2 | x8 | x6 E2 | x8 | x4 =E3 x | x2 C2 x B,2 x | x8 | x6 E2 | x8 | x8 | x8 | x8 | x8 | x6 E2 | %14
 x8 | x8 | x4 F4 | E6 |] %18
V:3
 [E,B,]2 | [E,B,]6 [E,_D]2 | [E,C]2 [E,_C]2 [E,B,]2 (G,A,) | [E,B,]6 [E,B,]2 | %4
 [E,B,]3 [D,=B,] [C,C]3 [F,,C] | [G,,B,]2 ([A,,A,][=A,,F,]) [B,,F,]2 (G,=A,) | [E,B,]6 [E,G,]2 | %7
 [E,B,]2 [E,A,]2 [E,G,]2 ([E,B,][C,A,]) | [B,,F,]6 [D,B,]2 | [E,B,]2 [C,C]2 [G,B,]2 [E,B,]2 | %10
 [F,B,]4 [F,=A,]4 | [B,,B,]6 [B,,A,]2 | [E,G,]6 [E,C]2 | [E,B,]2 [E,A,]2 [E,G,]2 [E,G,]2 | %14
 [E,B,]6 (E,_D,) | [C,A,]2 [B,,B,]2 [A,,C]2 [F,,C]2 | [B,,B,]4 [B,,A,]4 | [E,G,]6 |] %18
V:4
 x2 | x8 | x6 E,2 | x8 | x8 | x6 E,2 | x8 | x8 | x8 | x8 | x8 | x8 | x8 | x8 | x6 B,2 | x8 | x8 | %17
 x6 |] %18

